cypex/img/main/mainForm__bg.svg

<svg width="1920" height="592" fill="none" xmlns="http://www.w3.org/2000/svg"><g clip-path="url(#a)"><g opacity=".5" filter="url(#b)"><circle cx="955" cy="902" r="762" fill="url(#c)"/></g><g opacity=".5" filter="url(#d)"><circle cx="768.5" cy="1088.5" r="575.5" fill="url(#e)"/></g><path d="M521.494 414.444a2.667 2.667 0 1 0 5.333 0 2.667 2.667 0 0 0-5.333 0Zm-60.774 9.373-.354-.354.354.354Zm-37.374 37.374-.354-.353.354.353ZM-43 471.064h443.718v-1H-43v1Zm466.699-9.519 37.375-37.375-.708-.707-37.374 37.375.707.707Zm59.648-46.601h40.813v-1h-40.813v1Zm-22.273 9.226a31.5 31.5 0 0 1 22.273-9.226v-1a32.5 32.5 0 0 0-22.981 9.519l.708.707Zm-60.356 46.894a32.5 32.5 0 0 0 22.981-9.519l-.707-.707a31.5 31.5 0 0 1-22.274 9.226v1ZM458.833 340a2.667 2.667 0 1 0 5.334 0 2.667 2.667 0 0 0-5.334 0Zm-155.4 9.373-.354-.354.354.354Zm-45.773 45.773.353.353-.353-.353ZM-43 405.018h278.032v-1H-43v1Zm301.013-9.519 45.773-45.773-.707-.707-45.773 45.773.707.707ZM326.06 340.5H461.5v-1H326.06v1Zm-22.274 9.226a31.503 31.503 0 0 1 22.274-9.226v-1a32.5 32.5 0 0 0-22.981 9.519l.707.707Zm-68.754 55.292a32.5 32.5 0 0 0 22.981-9.519l-.707-.707a31.498 31.498 0 0 1-22.274 9.226v1Zm154.896-39.058a2.666 2.666 0 1 0 5.332.002 2.666 2.666 0 0 0-5.332-.002Zm-432.164 76.089H303.75v-1H-42.236v1Zm368.967-9.519 66.217-66.216-.707-.708-66.217 66.217.707.707Zm-22.981 9.519a32.5 32.5 0 0 0 22.981-9.519l-.707-.707a31.5 31.5 0 0 1-22.274 9.226v1Zm1060.3-51.554c0 1.473-1.2 2.667-2.67 2.667a2.663 2.663 0 0 1-2.66-2.667 2.663 2.663 0 0 1 2.66-2.667c1.47 0 2.67 1.194 2.67 2.667Zm631.27 133.026.36.354-.36-.354Zm401.79-71.062h-316.97v-1h316.97v1Zm-339.24 9.226-62.19 62.19-.71-.708 62.19-62.189.71.707Zm-85.17 71.709h-164v-1h164v1Zm-186.98-9.519-48.82-48.828.7-.707 48.83 48.827-.71.708Zm-71.1-58.054h-265.16v-1h265.16v1Zm-288.14-9.519-65.45-65.453.71-.707 65.45 65.453-.71.707Zm22.98 9.519c-8.62 0-16.88-3.424-22.98-9.519l.71-.707a31.505 31.505 0 0 0 22.27 9.226v1Zm287.44 9.226a31.51 31.51 0 0 0-22.28-9.226v-1c8.62 0 16.89 3.424 22.98 9.519l-.7.707Zm71.8 58.347a32.51 32.51 0 0 1-22.98-9.519l.71-.708a31.501 31.501 0 0 0 22.27 9.227v1Zm186.98-9.519a32.527 32.527 0 0 1-22.98 9.519v-1c8.35 0 16.36-3.319 22.27-9.227l.71.708Zm84.46-71.416a31.47 31.47 0 0 0-22.27 9.226l-.71-.707a32.488 32.488 0 0 1 22.98-9.519v1Zm30.27 30.805-.36-.353.15-.147h.21v.5Zm-98.88 98.877.35.354-.14.146h-.21v-.5Zm-232.5 0v.5h-.2l-.15-.146.35-.354Zm-84.37-84.37v-.5h.21l.15.147-.36.353Zm-230.57 0a2.665 2.665 0 1 1-5.33 0 2.664 2.664 0 1 1 5.33 0Zm933.02-14.007h-286.7v-1h286.7v1Zm-286.35-.146-98.88 98.877-.71-.707 98.88-98.877.71.707Zm-99.23 99.023h-232.5v-1h232.5v1Zm-232.85-.146-84.37-84.37.71-.707 84.37 84.37-.71.707Zm-84.02-84.224h-233.23v-1h233.23v1Zm-330.99 98.759c0 1.473-1.2 2.667-2.67 2.667a2.671 2.671 0 0 1-2.67-2.667 2.67 2.67 0 0 1 5.34 0Zm46.37-49.037.35.353-.35-.353Zm281.02 0-.36.353.36-.353Zm70.58 70.588.36-.354-.36.354Zm350.46-83.568.36.353-.36-.353Zm283.1-8.873h-260.47v-1h260.47v1Zm-282.74 9.226-83.57 83.568-.71-.707 83.57-83.568.71.707Zm-106.55 93.087h-221.64v-1h221.64v1Zm-244.62-9.519-70.59-70.588.71-.707 70.59 70.588-.71.707Zm-92.86-79.814h-235.76v-1h235.76v1Zm-258.04 9.226-49.04 49.038-.7-.707 49.03-49.038.71.707Zm22.28-9.226a31.51 31.51 0 0 0-22.28 9.226l-.71-.707a32.529 32.529 0 0 1 22.99-9.519v1Zm258.03 9.226a31.487 31.487 0 0 0-22.27-9.226v-1c8.62 0 16.89 3.424 22.98 9.519l-.71.707Zm93.57 80.107c-8.62 0-16.88-3.424-22.98-9.519l.71-.707a31.505 31.505 0 0 0 22.27 9.226v1Zm244.62-9.519a32.488 32.488 0 0 1-22.98 9.519v-1c8.35 0 16.37-3.319 22.27-9.226l.71.707Zm105.84-92.794c-8.35 0-16.36 3.319-22.27 9.226l-.71-.707a32.505 32.505 0 0 1 22.98-9.519v1ZM1432 346.592a2.665 2.665 0 1 1-5.33 0 2.665 2.665 0 1 1 5.33 0Zm409.05 98.667.35-.353-.35.353Zm-32.41-32.411.35-.354-.35.354Zm-331.79-18.745.35-.354-.35.354Zm-47.16-47.864 47.51 47.51-.71.707-47.51-47.51.71-.707Zm69.78 56.736h286.54v1h-286.54v-1Zm309.52 9.519 32.41 32.412-.7.707-32.41-32.412.7-.707Zm54.69 41.638h69.59v1h-69.59v-1Zm-22.28-9.226a31.51 31.51 0 0 0 22.28 9.226v1c-8.62 0-16.89-3.424-22.98-9.519l.7-.707Zm-55.39-41.931c8.62 0 16.89 3.424 22.98 9.519l-.7.707a31.51 31.51 0 0 0-22.28-9.226v-1Zm-308.81-9.226a31.5 31.5 0 0 0 22.27 9.226v1c-8.62 0-16.88-3.424-22.98-9.519l.71-.707Zm524.4 64.701a2.671 2.671 0 0 1-5.34 0c0-1.473 1.2-2.667 2.67-2.667s2.67 1.194 2.67 2.667Zm-570.74-74.063c0 1.473-1.2 2.667-2.67 2.667a2.671 2.671 0 0 1-2.67-2.667 2.67 2.67 0 0 1 5.34 0Zm36.44 39.112.36-.354-.36.354Zm294.76 18.745.36-.354-.36.354Zm37.38 37.374-.36.354.36-.354Zm178.32 0-.35-.353.35.353Zm21.52-20.815-21.17 21.169-.7-.707 21.17-21.169.7.707Zm-44.15 30.688h-133.06v-1h133.06v1Zm-156.05-9.519-37.37-37.374.71-.708 37.37 37.375-.71.707Zm-59.64-46.601h-249.51v-1h249.51v1Zm-272.49-9.519-39.11-39.111.7-.707 39.12 39.111-.71.707Zm22.98 9.519c-8.62 0-16.89-3.424-22.98-9.519l.71-.707a31.483 31.483 0 0 0 22.27 9.226v1Zm271.78 9.227a31.501 31.501 0 0 0-22.27-9.227v-1c8.62 0 16.88 3.424 22.98 9.519l-.71.708Zm60.36 46.893c-8.62 0-16.89-3.424-22.99-9.519l.71-.707a31.51 31.51 0 0 0 22.28 9.226v1Zm156.04-9.519a32.488 32.488 0 0 1-22.98 9.519v-1a31.51 31.51 0 0 0 22.28-9.226l.7.707Z" fill="#fff" fill-opacity=".07"/></g><defs><linearGradient id="c" x1="357.158" y1="1173.81" x2="1728.1" y2="879.096" gradientUnits="userSpaceOnUse"><stop stop-color="#5DA8FF" stop-opacity=".3"/><stop offset="1" stop-color="#899938"/></linearGradient><linearGradient id="e" x1="316.98" y1="1293.79" x2="1352.38" y2="1071.2" gradientUnits="userSpaceOnUse"><stop stop-color="#5DA8FF" stop-opacity=".3"/><stop offset="1" stop-color="#899938"/></linearGradient><filter id="b" x="-119" y="-172" width="2148" height="2148" filterUnits="userSpaceOnUse" color-interpolation-filters="sRGB"><feFlood flood-opacity="0" result="BackgroundImageFix"/><feBlend in="SourceGraphic" in2="BackgroundImageFix" result="shape"/><feGaussianBlur stdDeviation="156" result="effect1_foregroundBlur_74_1406"/></filter><filter id="d" x="-119" y="201" width="1775" height="1775" filterUnits="userSpaceOnUse" color-interpolation-filters="sRGB"><feFlood flood-opacity="0" result="BackgroundImageFix"/><feBlend in="SourceGraphic" in2="BackgroundImageFix" result="shape"/><feGaussianBlur stdDeviation="156" result="effect1_foregroundBlur_74_1406"/></filter><clipPath id="a"><path fill="#fff" d="M0 0h1920v592H0z"/></clipPath></defs></svg>

<svg width="1920" height="592" viewBox="0 0 1920 592" fill="none" xmlns="http://www.w3.org/2000/svg">
<g clip-path="url(#clip0_74_1406)">
<g opacity="0.5" filter="url(#filter0_f_74_1406)">
<circle cx="955" cy="902" r="762" fill="url(#paint0_linear_74_1406)"/>
</g>
<g opacity="0.5" filter="url(#filter1_f_74_1406)">
<circle cx="768.5" cy="1088.5" r="575.5" fill="url(#paint1_linear_74_1406)"/>
</g>
<path d="M521.494 414.444C521.494 415.917 522.688 417.111 524.16 417.111C525.633 417.111 526.827 415.917 526.827 414.444C526.827 412.972 525.633 411.778 524.16 411.778C522.688 411.778 521.494 412.972 521.494 414.444ZM460.72 423.817L460.366 423.463L460.72 423.817ZM423.346 461.191L422.992 460.838L423.346 461.191ZM-43 471.064H400.718V470.064H-43V471.064ZM423.699 461.545L461.074 424.17L460.366 423.463L422.992 460.838L423.699 461.545ZM483.347 414.944H524.16V413.944H483.347V414.944ZM461.074 424.17C466.981 418.263 474.993 414.944 483.347 414.944V413.944C474.728 413.944 466.461 417.368 460.366 423.463L461.074 424.17ZM400.718 471.064C409.338 471.064 417.604 467.64 423.699 461.545L422.992 460.838C417.085 466.745 409.073 470.064 400.718 470.064V471.064Z" fill="white" fill-opacity="0.07"/>
<path d="M458.833 340C458.833 341.473 460.027 342.667 461.5 342.667C462.973 342.667 464.167 341.473 464.167 340C464.167 338.527 462.973 337.333 461.5 337.333C460.027 337.333 458.833 338.527 458.833 340ZM303.433 349.373L303.079 349.019L303.433 349.373ZM257.66 395.146L258.013 395.499L257.66 395.146ZM-43 405.018H235.032V404.018H-43V405.018ZM258.013 395.499L303.786 349.726L303.079 349.019L257.306 394.792L258.013 395.499ZM326.06 340.5H461.5V339.5H326.06V340.5ZM303.786 349.726C309.694 343.819 317.706 340.5 326.06 340.5V339.5C317.441 339.5 309.174 342.924 303.079 349.019L303.786 349.726ZM235.032 405.018C243.652 405.018 251.918 401.594 258.013 395.499L257.306 394.792C251.399 400.7 243.386 404.018 235.032 404.018V405.018Z" fill="white" fill-opacity="0.07"/>
<path d="M389.928 365.96C389.928 367.433 391.121 368.627 392.594 368.627C394.067 368.627 395.261 367.433 395.261 365.96C395.261 364.487 394.067 363.293 392.594 363.293C391.121 363.293 389.928 364.487 389.928 365.96ZM-42.2365 442.049H303.75V441.049H-42.2365V442.049ZM326.731 432.53L392.948 366.314L392.241 365.606L326.024 431.823L326.731 432.53ZM303.75 442.049C312.369 442.049 320.636 438.625 326.731 432.53L326.024 431.823C320.116 437.731 312.104 441.049 303.75 441.049V442.049Z" fill="white" fill-opacity="0.07"/>
<path d="M1364.05 390.495C1364.05 391.968 1362.85 393.162 1361.38 393.162C1359.91 393.162 1358.72 391.968 1358.72 390.495C1358.72 389.022 1359.91 387.828 1361.38 387.828C1362.85 387.828 1364.05 389.022 1364.05 390.495ZM1995.32 523.521L1995.68 523.875L1995.32 523.521ZM2397.11 452.459H2080.14V451.459H2397.11V452.459ZM2057.87 461.685L1995.68 523.875L1994.97 523.167L2057.16 460.978L2057.87 461.685ZM1972.7 533.394H1808.7V532.394H1972.7V533.394ZM1785.72 523.875L1736.9 475.047L1737.6 474.34L1786.43 523.167L1785.72 523.875ZM1714.62 465.821H1449.46V464.821H1714.62V465.821ZM1426.48 456.302L1361.03 390.849L1361.74 390.142L1427.19 455.595L1426.48 456.302ZM1449.46 465.821C1440.84 465.821 1432.58 462.397 1426.48 456.302L1427.19 455.595C1433.1 461.502 1441.11 464.821 1449.46 464.821V465.821ZM1736.9 475.047C1730.99 469.14 1722.98 465.821 1714.62 465.821V464.821C1723.24 464.821 1731.51 468.245 1737.6 474.34L1736.9 475.047ZM1808.7 533.394C1800.08 533.394 1791.82 529.969 1785.72 523.875L1786.43 523.167C1792.34 529.075 1800.35 532.394 1808.7 532.394V533.394ZM1995.68 523.875C1989.58 529.969 1981.31 533.394 1972.7 533.394V532.394C1981.05 532.394 1989.06 529.075 1994.97 523.167L1995.68 523.875ZM2080.14 452.459C2071.78 452.459 2063.77 455.778 2057.87 461.685L2057.16 460.978C2063.25 454.883 2071.52 451.459 2080.14 451.459V452.459Z" fill="white" fill-opacity="0.07"/>
<path d="M2110.41 483.264L2110.05 482.911L2110.2 482.764H2110.41V483.264ZM2011.53 582.141L2011.88 582.495L2011.74 582.641H2011.53V582.141ZM1779.03 582.141V582.641H1778.83L1778.68 582.495L1779.03 582.141ZM1694.66 497.771V497.271H1694.87L1695.02 497.418L1694.66 497.771ZM1464.09 497.771C1464.09 499.244 1462.9 500.438 1461.43 500.438C1459.95 500.438 1458.76 499.244 1458.76 497.771C1458.76 496.298 1459.95 495.105 1461.43 495.105C1462.9 495.105 1464.09 496.298 1464.09 497.771ZM2397.11 483.764H2110.41V482.764H2397.11V483.764ZM2110.76 483.618L2011.88 582.495L2011.17 581.788L2110.05 482.911L2110.76 483.618ZM2011.53 582.641H1779.03V581.641H2011.53V582.641ZM1778.68 582.495L1694.31 498.125L1695.02 497.418L1779.39 581.788L1778.68 582.495ZM1694.66 498.271H1461.43V497.271H1694.66V498.271Z" fill="white" fill-opacity="0.07"/>
<path d="M1363.67 597.03C1363.67 598.503 1362.47 599.697 1361 599.697C1359.53 599.697 1358.33 598.503 1358.33 597.03C1358.33 595.557 1359.53 594.364 1361 594.364C1362.47 594.364 1363.67 595.557 1363.67 597.03ZM1410.04 547.993L1410.39 548.346L1410.04 547.993ZM1691.06 547.993L1690.7 548.346L1691.06 547.993ZM1761.64 618.581L1762 618.227L1761.64 618.581ZM2112.1 535.013L2112.46 535.366L2112.1 535.013ZM2395.2 526.14H2134.73V525.14H2395.2V526.14ZM2112.46 535.366L2028.89 618.934L2028.18 618.227L2111.75 534.659L2112.46 535.366ZM2005.91 628.453H1784.27V627.453H2005.91V628.453ZM1761.29 618.934L1690.7 548.346L1691.41 547.639L1762 618.227L1761.29 618.934ZM1668.43 539.12H1432.67V538.12H1668.43V539.12ZM1410.39 548.346L1361.35 597.384L1360.65 596.677L1409.68 547.639L1410.39 548.346ZM1432.67 539.12C1424.31 539.12 1416.3 542.439 1410.39 548.346L1409.68 547.639C1415.78 541.544 1424.05 538.12 1432.67 538.12V539.12ZM1690.7 548.346C1684.8 542.439 1676.78 539.12 1668.43 539.12V538.12C1677.05 538.12 1685.32 541.544 1691.41 547.639L1690.7 548.346ZM1784.27 628.453C1775.65 628.453 1767.39 625.029 1761.29 618.934L1762 618.227C1767.91 624.134 1775.92 627.453 1784.27 627.453V628.453ZM2028.89 618.934C2022.8 625.029 2014.53 628.453 2005.91 628.453V627.453C2014.26 627.453 2022.28 624.134 2028.18 618.227L2028.89 618.934ZM2134.73 526.14C2126.38 526.14 2118.37 529.459 2112.46 535.366L2111.75 534.659C2117.85 528.564 2126.11 525.14 2134.73 525.14V526.14Z" fill="white" fill-opacity="0.07"/>
<path d="M1432 346.592C1432 348.065 1430.81 349.259 1429.34 349.259C1427.86 349.259 1426.67 348.065 1426.67 346.592C1426.67 345.12 1427.86 343.926 1429.34 343.926C1430.81 343.926 1432 345.12 1432 346.592ZM1841.05 445.259L1841.4 444.906L1841.05 445.259ZM1808.64 412.848L1808.99 412.494L1808.64 412.848ZM1476.85 394.103L1477.2 393.749L1476.85 394.103ZM1429.69 346.239L1477.2 393.749L1476.49 394.456L1428.98 346.946L1429.69 346.239ZM1499.47 402.975H1786.01V403.975H1499.47V402.975ZM1808.99 412.494L1841.4 444.906L1840.7 445.613L1808.29 413.201L1808.99 412.494ZM1863.68 454.132H1933.27V455.132H1863.68V454.132ZM1841.4 444.906C1847.31 450.813 1855.32 454.132 1863.68 454.132V455.132C1855.06 455.132 1846.79 451.708 1840.7 445.613L1841.4 444.906ZM1786.01 402.975C1794.63 402.975 1802.9 406.399 1808.99 412.494L1808.29 413.201C1802.38 407.294 1794.37 403.975 1786.01 403.975V402.975ZM1477.2 393.749C1483.11 399.657 1491.12 402.975 1499.47 402.975V403.975C1490.85 403.975 1482.59 400.551 1476.49 394.456L1477.2 393.749Z" fill="white" fill-opacity="0.07"/>
<path d="M2001.6 458.45C2001.6 459.922 2000.4 461.116 1998.93 461.116C1997.46 461.116 1996.26 459.922 1996.26 458.45C1996.26 456.977 1997.46 455.783 1998.93 455.783C2000.4 455.783 2001.6 456.977 2001.6 458.45ZM1430.86 384.387C1430.86 385.86 1429.66 387.054 1428.19 387.054C1426.72 387.054 1425.52 385.86 1425.52 384.387C1425.52 382.914 1426.72 381.721 1428.19 381.721C1429.66 381.721 1430.86 382.914 1430.86 384.387ZM1467.3 423.499L1467.66 423.145L1467.3 423.499ZM1762.06 442.244L1762.42 441.89L1762.06 442.244ZM1799.44 479.618L1799.08 479.972L1799.44 479.618ZM1977.76 479.618L1977.41 479.265L1977.76 479.618ZM1999.28 458.803L1978.11 479.972L1977.41 479.265L1998.58 458.096L1999.28 458.803ZM1955.13 489.491H1822.07V488.491H1955.13V489.491ZM1799.08 479.972L1761.71 442.598L1762.42 441.89L1799.79 479.265L1799.08 479.972ZM1739.44 433.371H1489.93V432.371H1739.44V433.371ZM1466.95 423.852L1427.84 384.741L1428.54 384.034L1467.66 423.145L1466.95 423.852ZM1489.93 433.371C1481.31 433.371 1473.04 429.947 1466.95 423.852L1467.66 423.145C1473.56 429.053 1481.58 432.371 1489.93 432.371V433.371ZM1761.71 442.598C1755.8 436.69 1747.79 433.371 1739.44 433.371V432.371C1748.06 432.371 1756.32 435.795 1762.42 441.89L1761.71 442.598ZM1822.07 489.491C1813.45 489.491 1805.18 486.067 1799.08 479.972L1799.79 479.265C1805.7 485.172 1813.71 488.491 1822.07 488.491V489.491ZM1978.11 479.972C1972.02 486.067 1963.75 489.491 1955.13 489.491V488.491C1963.49 488.491 1971.5 485.172 1977.41 479.265L1978.11 479.972Z" fill="white" fill-opacity="0.07"/>
</g>
<defs>
<filter id="filter0_f_74_1406" x="-119" y="-172" width="2148" height="2148" filterUnits="userSpaceOnUse" color-interpolation-filters="sRGB">
<feFlood flood-opacity="0" result="BackgroundImageFix"/>
<feBlend mode="normal" in="SourceGraphic" in2="BackgroundImageFix" result="shape"/>
<feGaussianBlur stdDeviation="156" result="effect1_foregroundBlur_74_1406"/>
</filter>
<filter id="filter1_f_74_1406" x="-119" y="201" width="1775" height="1775" filterUnits="userSpaceOnUse" color-interpolation-filters="sRGB">
<feFlood flood-opacity="0" result="BackgroundImageFix"/>
<feBlend mode="normal" in="SourceGraphic" in2="BackgroundImageFix" result="shape"/>
<feGaussianBlur stdDeviation="156" result="effect1_foregroundBlur_74_1406"/>
</filter>
<linearGradient id="paint0_linear_74_1406" x1="357.158" y1="1173.81" x2="1728.1" y2="879.096" gradientUnits="userSpaceOnUse">
<stop stop-color="#5DA8FF" stop-opacity="0.3"/>
<stop offset="1" stop-color="#899938"/>
</linearGradient>
<linearGradient id="paint1_linear_74_1406" x1="316.98" y1="1293.79" x2="1352.38" y2="1071.2" gradientUnits="userSpaceOnUse">
<stop stop-color="#5DA8FF" stop-opacity="0.3"/>
<stop offset="1" stop-color="#899938"/>
</linearGradient>
<clipPath id="clip0_74_1406">
<rect width="1920" height="592" fill="white"/>
</clipPath>
</defs>
</svg>
